assets/Dvd/Flat/dvd_flat.svg

<svg width="32" height="32" viewBox="0 0 32 32" fill="none" xmlns="http://www.w3.org/2000/svg">
<path d="M16 30C23.732 30 30 23.732 30 16C30 8.26801 23.732 2 16 2C8.26801 2 2 8.26801 2 16C2 23.732 8.26801 30 16 30ZM16 20C13.7909 20 12 18.2091 12 16C12 13.7909 13.7909 12 16 12C18.2091 12 20 13.7909 20 16C20 18.2091 18.2091 20 16 20Z" fill="#FFB02E"/>
<path d="M15.9999 12C15.2776 12 14.6 12.1915 14.015 12.5264L10.2926 6.01207C9.88181 5.29326 10.1285 4.36866 10.8896 4.04295C12.4583 3.37164 14.1857 3 15.9999 3C19.0505 3 21.8556 4.05073 24.0732 5.81002C24.7222 6.3249 24.7175 7.28249 24.1317 7.86827L18.8284 13.1716C18.1045 12.4477 17.1045 12 15.9999 12ZM21.1103 27.9571C21.8714 27.6313 22.1181 26.7067 21.7074 25.9879L17.9849 19.4736C17.3999 19.8085 16.7223 20 16 20C14.8954 20 13.8954 19.5523 13.1715 18.8284L7.86824 24.1317C7.28245 24.7175 7.2777 25.6751 7.92669 26.19C10.1443 27.9493 12.9494 29 16 29C17.8142 29 19.5417 28.6284 21.1103 27.9571Z" fill="#FCD53F"/>
<path d="M16 21C18.7614 21 21 18.7614 21 16C21 13.2386 18.7614 11 16 11C13.2386 11 11 13.2386 11 16C11 18.7614 13.2386 21 16 21ZM16 19C14.3431 19 13 17.6569 13 16C13 14.3431 14.3431 13 16 13C17.6569 13 19 14.3431 19 16C19 17.6569 17.6569 19 16 19Z" fill="#FF822D"/>
</svg>

<svg xmlns="http://www.w3.org/2000/svg" width="32" height="32" fill="none"><path fill="#FFB02E" d="M16 30c7.732 0 14-6.268 14-14S23.732 2 16 2 2 8.268 2 16s6.268 14 14 14Zm0-10a4 4 0 1 1 0-8 4 4 0 0 1 0 8Z"/><path fill="#FCD53F" d="M16 12c-.722 0-1.4.191-1.985.526l-3.722-6.514c-.411-.719-.164-1.643.597-1.969A12.958 12.958 0 0 1 16 3c3.05 0 5.856 1.05 8.073 2.81.65.515.645 1.472.059 2.058l-5.304 5.304A3.988 3.988 0 0 0 16 12Zm5.11 15.957c.761-.326 1.008-1.25.597-1.97l-3.722-6.513A3.983 3.983 0 0 1 16 20a3.988 3.988 0 0 1-2.829-1.172l-5.303 5.304c-.586.585-.59 1.543.059 2.058A12.945 12.945 0 0 0 16 29c1.814 0 3.542-.372 5.11-1.043Z"/><path fill="#FF822D" d="M16 21a5 5 0 1 0 0-10 5 5 0 0 0 0 10Zm0-2a3 3 0 1 1 0-6 3 3 0 0 1 0 6Z"/></svg>
